X: 39051
T: Sweat House, The
R: reel
M: 4/4
K: Edorian
E2FD E2FA|BdAB defd|edfe dAAd|BdAF DEFD|
EBAF E2FA|BdAB defd|edfe dBAF|1 DEFD E3D:|2 DEFD E3A||
|:Be~e2 fded|BdAB dAFA|Beef dAde|fdad gefd|
Beeg fded|BdAB defd|edfe dBAF|1 DEFD E3A:|2 DEFD E3D||
~E2FD EFGA|(3Bcd AB defd|edfe dBAd|(3Bcd AF DEFD|
~E2FE BEFA|(3Bcd AB defd|edfe dBAF|1 DEFD ~E3D:|2 DEFD ~E3A||
|:Be~e2 fded|(3Bcd AB dAFA|Beef dcde|fAaA gAfA|
Beeg fded|(3Bcd AB defd|edfe dBAF|1 DEFD ~E3A:|2 DEFD ~E3D||

